X: 15845
T: Gortnatubrid, The
R: polka
M: 2/4
K: Bminor
|:dB cA|Bc de|f2 ed|c/B/A f>e|
dB cA|Bc de|fd ec|1 B2 f>e:|2 B2 de||
|:f2ba|fe f>e|dB cA|Bc de|
fb ag|fe f>e|dB cA|1 B2 de:|2 B2 f>e||

